src/img/advantages__money.svg

<svg width="48" height="48" fill="none" xmlns="http://www.w3.org/2000/svg">
  <path d="M1.76095 13.0617L1.77069 13.0519C2.1704 12.6912 2.78458 12.6912 3.16479 13.0714C3.545 13.4516 3.545 14.0658 3.16479 14.446C1.56597 16.0449 1.56597 18.6381 3.16479 20.2369C4.76361 21.8357 7.35682 21.8357 8.95564 20.2369C8.97514 20.2174 8.98489 20.2076 9.00438 20.1979C10.4667 18.1506 12.3385 16.4348 14.493 15.1577C12.2605 9.8933 14.727 3.81973 19.9914 1.59698C25.2558 -0.625766 31.3294 1.83096 33.5521 7.09537C34.0006 8.16774 34.2735 9.30837 34.3515 10.4685C35.3849 10.176 36.2136 10.0395 36.857 10.059C37.8904 10.0688 38.6508 10.7122 38.7678 11.6579C38.836 12.0771 38.7873 12.6912 38.5631 14.6898L38.3583 16.6005C40.2301 18.1214 41.7022 19.8957 42.7648 21.8845L45.592 22.4401C46.9959 22.7229 48 23.961 48 25.3843V31.6529C48 33.0859 46.9959 34.3143 45.592 34.597L42.7551 35.1625C42.1994 36.2543 41.517 37.278 40.7176 38.2139C41.7705 40.8266 40.9905 43.8195 38.8068 45.6035C37.5102 46.6564 35.8821 47.2316 34.215 47.2219C32.314 47.2219 30.4812 46.5004 29.0871 45.2038L28.4047 44.5604C25.8895 44.9406 23.3158 44.8529 20.8298 44.3264L19.8647 45.2526C18.5291 46.5102 16.7548 47.2121 14.922 47.1926H14.7172C14.7075 47.1926 14.6977 47.1926 14.688 47.1926C12.7772 47.1439 10.9639 46.3444 9.63806 44.9601C7.59079 42.7958 7.34707 39.5397 8.96539 36.9855C7.1326 34.4313 6.16745 31.5066 6.16745 28.4845V27.7728C6.16745 27.7533 6.16745 27.7338 6.16745 27.7143C6.25519 26.2617 6.6354 24.7604 7.29832 23.2395C5.2998 23.6685 3.21353 23.0543 1.77069 21.6017C-0.588539 19.2425 -0.588539 15.4209 1.76095 13.0617ZM24.0177 2.71811C19.387 2.70836 15.6239 6.45194 15.6141 11.0827C15.6044 13.8806 16.9985 16.5031 19.3285 18.0629C19.4065 18.1214 19.4845 18.2384 19.5429 18.2384H28.4534C28.4924 18.2384 28.5412 18.1799 28.5899 18.1409C30.8029 16.7078 32.2068 14.3193 32.4018 11.6968C32.4213 11.4726 32.4213 11.2776 32.4213 11.1022C32.4115 6.48118 28.6582 2.72786 24.0177 2.71811ZM10.8567 36.2641C11.0224 36.4591 11.2759 36.9075 10.9737 37.5119C10.9444 37.5704 10.9152 37.6192 10.8762 37.6679C9.46258 39.5105 9.54057 42.0062 11.0614 43.6148C12.0265 44.6189 13.3329 45.2428 14.7465 45.2428H14.9317C16.2673 45.2526 17.5542 44.7554 18.5291 43.839L19.7964 42.6301C20.0206 42.4156 20.3229 42.2987 20.6251 42.3084C20.7031 42.3084 20.7713 42.3182 20.8493 42.3377C23.3548 42.9323 25.948 43.0103 28.4924 42.5814C28.5509 42.5716 28.5997 42.5716 28.6582 42.5716C28.9701 42.5619 29.2626 42.6789 29.4868 42.8933L30.4422 43.8C31.4171 44.7066 32.6747 45.2233 34.0006 45.2818C35.2972 45.3501 36.584 44.9309 37.5979 44.1217C39.2162 42.7958 39.7134 40.5244 38.7873 38.6428C38.6411 38.3991 38.6021 38.0969 38.68 37.8142C38.719 37.6387 38.797 37.4827 38.914 37.356C39.8304 36.3518 40.6006 35.2112 41.1953 33.9828C41.244 33.8853 41.3025 33.7976 41.3805 33.7196C41.5657 33.5149 41.8094 33.3882 42.0727 33.3394L45.2118 32.7057C45.6993 32.6082 46.0502 32.1695 46.0502 31.6724V25.3843C46.06 24.8871 45.709 24.4484 45.2118 24.3509L42.0629 23.7172C41.7997 23.6685 41.556 23.5418 41.3707 23.337C41.2928 23.259 41.2343 23.1811 41.1855 23.0836C40.1911 21.0948 38.7093 19.3205 36.7888 17.8387C36.7595 17.8094 36.7303 17.7899 36.701 17.7607C36.4768 17.5364 36.3598 17.2342 36.3696 16.9223C36.3696 16.8833 36.3696 16.854 36.3793 16.815L36.6328 14.4753C36.7205 13.7246 36.8668 12.3695 36.8473 11.9991C36.8375 11.9991 36.818 11.9991 36.8083 11.9991C36.4183 11.9893 35.6676 12.0576 34.2833 12.506C33.9908 14.6703 33.0159 16.6785 31.5049 18.2481H32.431C32.9672 18.2481 33.4059 18.6868 33.4059 19.223C33.4059 19.7592 32.9672 20.1979 32.431 20.1979H15.5361C15 20.1979 14.5613 19.7592 14.5613 19.223C14.5613 18.6868 15 18.2481 15.5361 18.2481H16.55C16.1211 17.8289 15.7409 17.361 15.4192 16.854C13.1672 18.2189 11.3149 20.0517 10.0378 22.1574L9.34559 23.493C8.63392 24.9651 8.22447 26.4567 8.12698 27.8215V28.4942C8.12698 31.2726 9.07262 33.9536 10.8567 36.2641Z" fill="#fff"/>
  <path d="M34.4979 23.61C35.8823 23.61 36.9937 24.7311 36.9937 26.1057 36.9937 27.49 35.8725 28.6014 34.4979 28.6014 33.1233 28.6014 32.0022 27.4803 32.0022 26.1057 31.9925 24.7311 33.1136 23.61 34.4979 23.61zM34.4979 26.6614C34.8001 26.6614 35.0439 26.4177 35.0439 26.1155 35.0439 25.8132 34.8001 25.5695 34.4979 25.5695 34.1957 25.5695 33.952 25.8132 33.952 26.1155 33.9422 26.4177 34.186 26.6614 34.4979 26.6614zM24.0177 5.19427C27.2836 5.19427 29.9255 7.83623 29.9255 11.1021 29.9158 14.3582 27.2738 17.0002 24.0177 17.0099 20.7518 17.0099 18.1099 14.368 18.1099 11.1021 18.1099 7.83623 20.7518 5.19427 24.0177 5.19427zM24.0177 15.0602C26.2015 15.0602 27.9758 13.2859 27.9758 11.1021 27.9758 8.91835 26.2015 7.14405 24.0177 7.14405 21.8339 7.14405 20.0596 8.91835 20.0596 11.1021 20.0596 13.2859 21.8339 15.0602 24.0177 15.0602z" fill="#fff"/>
</svg>

<svg width="48" height="48" fill="none" xmlns="http://www.w3.org/2000/svg"><path d="M1.761 13.062l.01-.01c.4-.36 1.014-.36 1.394.02a.97.97 0 010 1.374 4.095 4.095 0 005.79 5.79.184.184 0 01.05-.038 18.07 18.07 0 015.488-5.04c-2.232-5.265.234-11.338 5.498-13.561 5.265-2.223 11.338.234 13.561 5.498a10.61 10.61 0 01.8 3.374c1.033-.293 1.862-.43 2.505-.41 1.033.01 1.794.653 1.91 1.599.069.42.02 1.033-.204 3.032l-.205 1.91c1.872 1.521 3.344 3.296 4.407 5.284l2.827.556A3.005 3.005 0 0148 25.384v6.269a2.997 2.997 0 01-2.408 2.944l-2.837.566a15.569 15.569 0 01-2.037 3.05 6.439 6.439 0 01-1.911 7.39 7.232 7.232 0 01-4.592 1.619 7.532 7.532 0 01-5.128-2.018l-.682-.644c-2.515.38-5.09.293-7.575-.234l-.965.927a7.114 7.114 0 01-4.943 1.94h-.234a7.243 7.243 0 01-5.05-2.233c-2.047-2.164-2.29-5.42-.673-7.974-1.832-2.555-2.798-5.48-2.798-8.501v-.771c.088-1.452.468-2.954 1.131-4.474a6.015 6.015 0 01-5.527-1.638 6.046 6.046 0 01-.01-8.54zM24.018 2.718a8.384 8.384 0 00-4.69 15.345c.079.058.157.175.215.175h8.91c.04 0 .088-.058.137-.097a8.416 8.416 0 003.812-6.444c.02-.224.02-.42.02-.595-.01-4.62-3.764-8.374-8.404-8.384zM10.857 36.264c.165.195.419.643.117 1.248a.843.843 0 01-.098.156c-1.413 1.843-1.335 4.338.185 5.947.966 1.004 2.272 1.628 3.685 1.628h.186a5.187 5.187 0 003.597-1.404l1.267-1.209a1.155 1.155 0 011.053-.292c2.506.594 5.099.672 7.643.243.059-.01.108-.01.166-.01.312-.01.605.108.829.322l.955.907a5.568 5.568 0 003.559 1.482 5.338 5.338 0 003.597-1.16 4.511 4.511 0 001.19-5.48 1.066 1.066 0 01-.108-.828.98.98 0 01.234-.458 14.172 14.172 0 002.281-3.373.988.988 0 01.185-.263c.186-.205.43-.332.693-.38l3.139-.634c.487-.098.838-.537.838-1.034v-6.288a1.035 1.035 0 00-.838-1.033l-3.15-.634a1.225 1.225 0 01-.691-.38.945.945 0 01-.186-.253c-.994-1.99-2.476-3.764-4.396-5.245-.03-.03-.059-.05-.088-.078a1.131 1.131 0 01-.331-.839c0-.039 0-.068.01-.107l.253-2.34c.087-.75.234-2.105.214-2.476h-.039c-.39-.01-1.14.059-2.525.507a10.258 10.258 0 01-2.778 5.742h.926c.536 0 .975.439.975.975a.978.978 0 01-.975.975H15.536a.978.978 0 01-.975-.975c0-.536.439-.975.975-.975h1.014a7.777 7.777 0 01-1.13-1.394c-2.253 1.365-4.105 3.198-5.382 5.303l-.692 1.336c-.712 1.472-1.122 2.964-1.219 4.329v.672c0 2.779.946 5.46 2.73 7.77z" fill="#fff"/><path d="M34.498 23.61a2.494 2.494 0 012.496 2.496 2.494 2.494 0 01-2.496 2.495 2.5 2.5 0 01-2.496-2.495 2.488 2.488 0 012.496-2.496zm0 3.051a.545.545 0 10-.546-.546.533.533 0 00.546.546zM24.018 5.194a5.904 5.904 0 015.907 5.908 5.929 5.929 0 01-5.907 5.908 5.904 5.904 0 01-5.908-5.908 5.904 5.904 0 015.908-5.908zm0 9.866a3.96 3.96 0 003.958-3.958 3.96 3.96 0 00-3.958-3.958 3.96 3.96 0 00-3.958 3.958 3.96 3.96 0 003.958 3.958z" fill="#fff"/></svg>
